!!!COM: Anonim
!!!CDT: [?]
!!!OTL@@LAT: Ave verum corpus natum
!!!OTL@POL: Witaÿ słowo nie stworzone
!!!TXO: Latin/Polish
!!!ODT: 
!!!GTL: Hymnbook E
!!!ARL: Opactwo św. Wojciecha, Staniątki 
!!!voices:	4
**kern	**kern	**text	**text	**kern	**text	**text	**kern	**text	**text
*staff4	*staff3	*staff3	*staff3	*staff2	*staff2	*staff2	*staff1	*staff1	*staff1
*I"Basso	*I"Tenore	*	*	*I"Canto II	*	*	*I"Canto I	*	*
=1-	=1-	=1-	=1-	=1-	=1-	=1-	=1-	=1-	=1-
*clefF4	*clefGv2	*	*	*clefG2	*	*	*clefG2	*	*
*k[b-]	*k[b-]	*	*	*k[b-]	*	*	*k[b-]	*	*
*met(c|)	*met(c|)	*	*	*met(c|)	*	*	*met(c|)	*	*
*M2/2	*M2/2	*	*	*M2/2	*	*	*M2/2	*	*
2F\	2A/	A-	Ve-	2f/	A-	Ve-	2f/	A-	Ve-
2C/	2c\	-ve	-re	2e/	-ve	-re	2g/	-ve	-re
=2	=2	=2	=2	=2	=2	=2	=2	=2	=2
1F	1c	ve-	pas-	1f	ve-	pas-	1a	ve-	pas-
=3	=3	=3	=3	=3	=3	=3	=3	=3	=3
1BB-	1B-	-rum	-sum	1d	-rum	-sum	1f	-rum	-sum
=4	=4	=4	=4	=4	=4	=4	=4	=4	=4
2F\	2A/	cor-	im-	2c/	cor-	im-	2f/	cor-	im-
2F\	2c\	-pus	-mo-	[2f/	-pus	-mo-	2a/	-pus	-mo-
=5	=5	=5	=5	=5	=5	=5	=5	=5	=5
1C	1c	na-	-la-	2f/]	.	.	1g	na-	-la-
.	.	.	.	2e/	na-	-la-	.	.	.
=6	=6	=6	=6	=6	=6	=6	=6	=6	=6
1FF	1A	-tum	-tum	1f	-tum	-tum	1f	-tum	-tum
=7	=7	=7	=7	=7	=7	=7	=7	=7	=7
2F\	2f\	ex	in	2a/	ex	in	2cc\	ex	in
2F\	2f\	Ma-	cru-	2a/	Ma-	cru-	2cc\	Ma-	cru-
=8	=8	=8	=8	=8	=8	=8	=8	=8	=8
4BB-/	[1f	-ri-	-ce	1b-	-ri-	-ce	1dd	-ri-	-ce
4C/	.	.	.	.	.	.	.	.	.
4D\	.	.	.	.	.	.	.	.	.
4E\	.	.	.	.	.	.	.	.	.
=9	=9	=9	=9	=9	=9	=9	=9	=9	=9
2F\	2f\]	.	.	2a/	-a	pro	1cc	-a	pro
2E\	2c\	-a	pro	[2g/	Vir-	ho-	.	.	.
=10	=10	=10	=10	=10	=10	=10	=10	=10	=10
2D\	1d	Vir-	ho-	4g/]	.	.	2a/	Vir-	ho-
.	.	.	.	4f/	.	.	.	.	.
2BB-/	.	.	.	[2f/	-gi-	-mi-	2b-\	.	.
=11	=11	=11	=11	=11	=11	=11	=11	=11	=11
1C	1c	-gi-	-mi-	2f/]	.	.	1g	-gi-	-mi-
.	.	.	.	2e/	.	.	.	.	.
=12	=12	=12	=12	=12	=12	=12	=12	=12	=12
1FF	1A	-ne	-ne	1f	-ne	-ne	1f	-ne	-ne
=13:|!|:	=13:|!|:	=13:|!|:	=13:|!|:	=13:|!|:	=13:|!|:	=13:|!|:	=13:|!|:	=13:|!|:	=13:|!|:
2C/	2c\	Cu-	Es-	2e/	Cu-	Es-	2g/	Cu-	Es-
2GG/	2Bn\	.	.	2d/	-ius	-to	2g/	-ius	-to
=14	=14	=14	=14	=14	=14	=14	=14	=14	=14
1C	2c\	-ius	-to	1e	la-	no-	1g	la-	no-
.	2c\	la-	no-	.	.	.	.	.	.
=15	=15	=15	=15	=15	=15	=15	=15	=15	=15
1F	1A	-tus	-bis	1c	-tus	-bis	1f	-tus	-bis
=16	=16	=16	=16	=16	=16	=16	=16	=16	=16
2C/	2G/	per-	pre-	2c/	per-	pre-	2e/	per-	pre-
2C/	[2c\	-fo-	-gus-	2c/	-fo-	-gus-	2e/	-fo-	-gus-
=17	=17	=17	=17	=17	=17	=17	=17	=17	=17
2G\	2c\]	.	.	1d	-ra-	-ta-	1g	-ra-	-ta-
2GG/	2Bn\	-ra-	-ta-	.	.	.	.	.	.
=18	=18	=18	=18	=18	=18	=18	=18	=18	=18
1C	1c	-tum	-tum	1e	-tum	-tum	1g	-tum	-tum
=19	=19	=19	=19	=19	=19	=19	=19	=19	=19
2F\	2f\	un-	mor-	2a/	un-	mor-	2cc\	un-	mor-
2F\	2f\	-da	-tis	2a/	-da	-tis	2cc\	-da	-tis
=20	=20	=20	=20	=20	=20	=20	=20	=20	=20
4BB-/	[1f	flu-	in	1b-	flu-	in	1dd	flu-	in
4C/	.	.	.	.	.	.	.	.	.
4D\	.	.	.	.	.	.	.	.	.
4E\	.	.	.	.	.	.	.	.	.
=21	=21	=21	=21	=21	=21	=21	=21	=21	=21
2F\	2f\]	.	.	2a/	-xit	ex-	1cc	-xit	ex-
2E\	2c\	-xit	ex-	[2g/	san-	-a-	.	.	.
=22	=22	=22	=22	=22	=22	=22	=22	=22	=22
2D\	1d	san-	-a-	4g/]	.	.	2a/	san-	-a-
.	.	.	.	4f/	.	.	.	.	.
2BB-/	.	.	.	[2f/	-gui-	-mi-	2b-\	.	.
=23	=23	=23	=23	=23	=23	=23	=23	=23	=23
1C	1c	-gui-	-mi-	2f/]	.	.	1g	-gui-	-mi-
.	.	.	.	2e/	.	.	.	.	.
=24	=24	=24	=24	=24	=24	=24	=24	=24	=24
1FF	1A	-ne	-ne	1f	-ne	-ne	1f	-ne	-ne
=25:|!	=25:|!	=25:|!	=25:|!	=25:|!	=25:|!	=25:|!	=25:|!	=25:|!	=25:|!
1F	1A	O	.	1c	O	.	1f	O	.
=26	=26	=26	=26	=26	=26	=26	=26	=26	=26
1BB-	1B-	cle-	.	1d	cle-	.	1f	cle-	.
=27	=27	=27	=27	=27	=27	=27	=27	=27	=27
1F	1A	-mens	.	1c	-mens	.	1f	-mens	.
=28	=28	=28	=28	=28	=28	=28	=28	=28	=28
1FF	1A	o	.	1c	o	.	1f	o	.
=29	=29	=29	=29	=29	=29	=29	=29	=29	=29
1BB-	1B-	pi-	.	1d	pi-	.	1f	pi-	.
=30	=30	=30	=30	=30	=30	=30	=30	=30	=30
1FF	1A	-e	.	1c	-e	.	1f	-e	.
=31	=31	=31	=31	=31	=31	=31	=31	=31	=31
1F	1A	o	.	1c	o	.	1f	o	.
=32	=32	=32	=32	=32	=32	=32	=32	=32	=32
1BB-	1B-	dul-	.	1d	dul-	.	1f	dul-	.
=33	=33	=33	=33	=33	=33	=33	=33	=33	=33
1F	1A	-cis	.	1c	-cis	.	1f	-cis	.
=34	=34	=34	=34	=34	=34	=34	=34	=34	=34
[1F	[1c	Je-	.	[1f	Je-	.	[1a	Je-	.
=35	=35	=35	=35	=35	=35	=35	=35	=35	=35
1F]	1c]	.	.	1f]	.	.	1a]	.	.
=36	=36	=36	=36	=36	=36	=36	=36	=36	=36
1D	1d	-su	.	1f	-su	.	1a	-su	.
=37	=37	=37	=37	=37	=37	=37	=37	=37	=37
1BB-	1d	fi-	.	1f	fi-	.	1b-	fi-	.
=38	=38	=38	=38	=38	=38	=38	=38	=38	=38
2BB-/	2d\	-li	.	2f/	-li	.	2b-\	-li	.
2C/	[2c\	Ma-	.	2e/	Ma-	.	2g/	Ma-	.
=39	=39	=39	=39	=39	=39	=39	=39	=39	=39
1GG	4c\]	.	.	1d	-ri-	.	1g	-ri-	.
.	8B-/L	.	.	.	.	.	.	.	.
.	8A/J	.	.	.	.	.	.	.	.
.	2Bn\	-ri-	.	.	.	.	.	.	.
=40	=40	=40	=40	=40	=40	=40	=40	=40	=40
[1C	[1c	-ae	.	[1e	-ae	.	[1g	-ae	.
=41	=41	=41	=41	=41	=41	=41	=41	=41	=41
1C]	1c]	.	.	1e]	.	.	1g]	.	.
=42	=42	=42	=42	=42	=42	=42	=42	=42	=42
[1F	[1c	Mi-	.	[1a	Mi-	.	[1f	Mi-	.
=43	=43	=43	=43	=43	=43	=43	=43	=43	=43
2F\]	2c\]	.	.	2a/]	.	.	2f/]	.	.
2F\	2c\	-se-	.	2a/	-se-	.	2f/	-se-	.
=44	=44	=44	=44	=44	=44	=44	=44	=44	=44
1BB-	1d	-re-	.	1b-	-re-	.	1f	-re-	.
=45	=45	=45	=45	=45	=45	=45	=45	=45	=45
1AA	1c	-re	.	1cc	-re	.	1f	-re	.
=46	=46	=46	=46	=46	=46	=46	=46	=46	=46
[1BB-	[1B-	no-	.	[1dd	no-	.	[1f	no-	.
=47	=47	=47	=47	=47	=47	=47	=47	=47	=47
1BB-]	1B-]	.	.	1dd]	.	.	1f]	.	.
=48	=48	=48	=48	=48	=48	=48	=48	=48	=48
1FF	1A	-bis.	.	1cc	-bis.	.	1f	-bis.	.
==	==	==	==	==	==	==	==	==	==
*-	*-	*-	*-	*-	*-	*-	*-	*-	*-
!!title: @{OTL}, @{GTL}: @{pag}, ed. @{ENC}
!!!pag: pp. 65v-66r 
!!!GTL: Hymnbook E
!!!EFL: 
!!!YEM: Creative Commons CC/BY/NC/SA 4.0
!!!ENC: Marcin Konik
!!!END: 2015-05-02
!!!EED: Marcin Konik
!!!EEV: 
!!!ONB: Encoded in vim by Marcin Konik
!!!CharacterEncoding: utf-8
!!!RDF**kern: l=long note in original notation
!!!RDF**kern: i=editorial accidental
!!muse2ps: z14jc180F
